works/GoSurf/app/img/arrows-down.svg

<svg width="21" height="24" viewBox="0 0 21 24" fill="none" xmlns="http://www.w3.org/2000/svg">
<path d="M10.3067 23.8879C10.7049 23.8485 11.0819 23.688 11.3847 23.4276L19.524 16.451C19.9343 16.1225 20.1932 15.641 20.2417 15.1187C20.2901 14.5963 20.1251 14.077 19.7845 13.6773C19.4423 13.2791 18.9548 13.0354 18.4309 13.0036C17.9071 12.9718 17.3923 13.1535 17.0047 13.5077L10.125 19.4065L3.24529 13.5077C2.8577 13.1535 2.34295 12.9718 1.81908 13.0036C1.29521 13.0354 0.807705 13.2791 0.465542 13.6773C0.124886 14.077 -0.040146 14.5963 0.00830261 15.1187C0.0567513 15.641 0.315649 16.1225 0.725963 16.451L8.86534 23.4276C9.26351 23.7698 9.78435 23.9348 10.3067 23.8879Z" fill="white"/>
<path d="M10.3067 10.8879C10.7049 10.8485 11.0819 10.688 11.3847 10.4276L19.524 3.45102C19.9343 3.12248 20.1932 2.64104 20.2417 2.11868C20.2901 1.59633 20.1251 1.07704 19.7845 0.677315C19.4423 0.279144 18.9548 0.0353896 18.4309 0.00356854C17.9071 -0.0282258 17.3923 0.153457 17.0047 0.507745L10.125 6.40646L3.24529 0.507745C2.8577 0.153465 2.34295 -0.0282138 1.81908 0.00356854C1.29521 0.0353629 0.807705 0.279121 0.465542 0.677315C0.124886 1.077 -0.040146 1.59633 0.00830261 2.11868C0.0567513 2.64104 0.315649 3.12246 0.725963 3.45102L8.86534 10.4276C9.26351 10.7698 9.78435 10.9348 10.3067 10.8879Z" fill="white"/>
</svg>

<svg width="21" height="24" fill="none" xmlns="http://www.w3.org/2000/svg"><path d="M10.307 23.888c.398-.04.775-.2 1.078-.46l8.139-6.977a1.937 1.937 0 00-1.093-3.447 1.94 1.94 0 00-1.426.504l-6.88 5.899-6.88-5.9a1.94 1.94 0 00-2.78.17 1.937 1.937 0 00.26 2.774l8.14 6.977c.399.342.92.507 1.442.46zM10.307 10.888c.398-.04.775-.2 1.078-.46l8.139-6.977a1.937 1.937 0 10-2.52-2.943l-6.879 5.898L3.245.508a1.94 1.94 0 00-2.78.17 1.937 1.937 0 00.26 2.774l8.14 6.976c.399.342.92.507 1.442.46z" fill="#fff"/></svg>
